fs/share_ios_20_filled.svg

<svg viewBox="0 0 20 20" fill="none" xmlns="http://www.w3.org/2000/svg" height="1em" width="1em">
  <path d="M15.75 9.25C16.1297 9.25 16.4435 9.53215 16.4932 9.89823L16.5 10V15.25C16.5 16.7125 15.3583 17.9084 13.9175 17.995L13.75 18H6.25C4.78747 18 3.5916 16.8583 3.50502 15.4175L3.5 15.25V10C3.5 9.58579 3.83579 9.25 4.25 9.25C4.6297 9.25 4.94349 9.53215 4.99315 9.89823L5 10V15.25C5 15.8972 5.49187 16.4295 6.12219 16.4935L6.25 16.5H13.75C14.3972 16.5 14.9295 16.0081 14.9935 15.3778L15 15.25V10C15 9.58579 15.3358 9.25 15.75 9.25ZM5.22703 6.46231L9.46967 2.21967C9.73594 1.9534 10.1526 1.9292 10.4462 2.14705L10.5303 2.21967L14.773 6.46231C15.0659 6.7552 15.0659 7.23008 14.773 7.52297C14.5067 7.78924 14.09 7.81344 13.7964 7.59559L13.7123 7.52297L10.75 4.56V12.25C10.75 12.6297 10.4678 12.9435 10.1018 12.9932L10 13C9.6203 13 9.30651 12.7178 9.25685 12.3518L9.25 12.25V4.56L6.28769 7.52297C6.02142 7.78924 5.60476 7.81344 5.31115 7.59559L5.22703 7.52297C4.96076 7.2567 4.93656 6.84004 5.15441 6.54643L5.22703 6.46231L9.46967 2.21967L5.22703 6.46231Z" fill="#212121"/>
</svg>

<svg viewBox="0 0 20 20" fill="none" xmlns="http://www.w3.org/2000/svg" height="1em" width="1em">
  <path d="M15.75 9.25a.75.75 0 0 1 .743.648L16.5 10v5.25a2.75 2.75 0 0 1-2.582 2.745L13.75 18h-7.5a2.75 2.75 0 0 1-2.745-2.582L3.5 15.25V10a.75.75 0 0 1 1.493-.102L5 10v5.25c0 .647.492 1.18 1.122 1.244l.128.006h7.5a1.25 1.25 0 0 0 1.243-1.122L15 15.25V10a.75.75 0 0 1 .75-.75ZM5.227 6.462 9.47 2.22a.75.75 0 0 1 .976-.073l.084.073 4.243 4.242a.75.75 0 0 1-.977 1.134l-.084-.073L10.75 4.56v7.69a.75.75 0 0 1-.648.743L10 13a.75.75 0 0 1-.743-.648l-.007-.102V4.56L6.288 7.523a.75.75 0 0 1-.977.073l-.084-.073a.75.75 0 0 1-.073-.977l.073-.084L9.47 2.22 5.227 6.462Z" fill="#212121"/>
</svg>
